assets/Tear-off calendar/Flat/tear-off_calendar_flat.svg

<svg width="32" height="32" viewBox="0 0 32 32" fill="none" xmlns="http://www.w3.org/2000/svg">
<path d="M2 9.00001L15.2666 6.15716C15.7501 6.05357 16.2499 6.05357 16.7334 6.15716L30 9.00001V24.8C30 27.6719 27.6719 30 24.8 30H7.2C4.32812 30 2 27.6719 2 24.8V9.00001Z" fill="#B4ACBC"/>
<path d="M3 10.8837V24.5C3 26.9853 5.01472 29 7.5 29C12.8333 29 18.1667 29 23.5 29L29 23.3256V10.8837L16.4643 8.5L3 10.8837Z" fill="#F3EEF8"/>
<path d="M8.2 13C8.08954 13 8 13.0895 8 13.2V15.8C8 15.9105 8.08954 16 8.2 16H10.8C10.9105 16 11 15.9105 11 15.8V13.2C11 13.0895 10.9105 13 10.8 13H8.2Z" fill="#998EA4"/>
<path d="M14.7 13C14.5895 13 14.5 13.0895 14.5 13.2V15.8C14.5 15.9105 14.5895 16 14.7 16H17.3C17.4105 16 17.5 15.9105 17.5 15.8V13.2C17.5 13.0895 17.4105 13 17.3 13H14.7Z" fill="#998EA4"/>
<path d="M21 13.2C21 13.0895 21.0895 13 21.2 13H23.8C23.9105 13 24 13.0895 24 13.2V15.8C24 15.9105 23.9105 16 23.8 16H21.2C21.0895 16 21 15.9105 21 15.8V13.2Z" fill="#998EA4"/>
<path d="M8.2 18C8.08954 18 8 18.0895 8 18.2V20.8C8 20.9105 8.08954 21 8.2 21H10.8C10.9105 21 11 20.9105 11 20.8V18.2C11 18.0895 10.9105 18 10.8 18H8.2Z" fill="#998EA4"/>
<path d="M14.5 18.2C14.5 18.0895 14.5895 18 14.7 18H17.3C17.4105 18 17.5 18.0895 17.5 18.2V20.8C17.5 20.9105 17.4105 21 17.3 21H14.7C14.5895 21 14.5 20.9105 14.5 20.8V18.2Z" fill="#998EA4"/>
<path d="M8.2 23C8.08954 23 8 23.0895 8 23.2V25.8C8 25.9105 8.08954 26 8.2 26H10.8C10.9105 26 11 25.9105 11 25.8V23.2C11 23.0895 10.9105 23 10.8 23H8.2Z" fill="#998EA4"/>
<path d="M14.5 23.2C14.5 23.0895 14.5895 23 14.7 23H17.3C17.4105 23 17.5 23.0895 17.5 23.2V25.8C17.5 25.9105 17.4105 26 17.3 26H14.7C14.5895 26 14.5 25.9105 14.5 25.8V23.2Z" fill="#998EA4"/>
<path d="M21.2 23C21.0895 23 21 23.0895 21 23.2V25.8C21 25.9105 21.0895 26 21.2 26H23.8C23.9105 26 24 25.9105 24 25.8V23.2C24 23.0895 23.9105 23 23.8 23H21.2Z" fill="#998EA4"/>
<path d="M30.0098 26.24V23L25.4998 25.5L23.0098 30H26.2498C28.3298 30 30.0098 28.31 30.0098 26.24Z" fill="#998EA4"/>
<path d="M23.0098 26.76V30L30.0098 23H26.7698C24.6998 23 23.0098 24.69 23.0098 26.76Z" fill="#E1D8EC"/>
<path d="M30 8.78525V11H2V8.78525C2 6.69131 3.6894 4.98998 5.75866 5.00004H26.2413C28.3106 5.00004 30 6.69131 30 8.78525Z" fill="#0084CE"/>
<path d="M21.2 18C21.0895 18 21 18.0895 21 18.2V20.8C21 20.9105 21.0895 21 21.2 21H23.8C23.9105 21 24 20.9105 24 20.8V18.2C24 18.0895 23.9105 18 23.8 18H21.2Z" fill="#0084CE"/>
<path d="M8 6.69565C8 7.41806 8.55769 8 9.25 8C9.94231 8 10.5 7.41806 10.5 6.69565V3.30435C10.5 2.58194 9.94231 2 9.25 2C8.55769 2 8 2.58194 8 3.30435V6.69565Z" fill="#CDC4D6"/>
<path d="M21.5 6.69565C21.5 7.41806 22.0577 8 22.75 8C23.4423 8 24 7.41806 24 6.69565V3.30435C24 2.58194 23.4423 2 22.75 2C22.0577 2 21.5 2.58194 21.5 3.30435V6.69565Z" fill="#CDC4D6"/>
</svg>

<svg xmlns="http://www.w3.org/2000/svg" width="32" height="32" fill="none"><path fill="#B4ACBC" d="m2 9 13.267-2.843a3.5 3.5 0 0 1 1.466 0L30 9v15.8a5.2 5.2 0 0 1-5.2 5.2H7.2A5.2 5.2 0 0 1 2 24.8V9Z"/><path fill="#F3EEF8" d="M3 10.884V24.5A4.5 4.5 0 0 0 7.5 29h16l5.5-5.674V10.884L16.464 8.5 3 10.884Z"/><path fill="#998EA4" d="M8.2 13a.2.2 0 0 0-.2.2v2.6c0 .11.09.2.2.2h2.6a.2.2 0 0 0 .2-.2v-2.6a.2.2 0 0 0-.2-.2H8.2ZM14.7 13a.2.2 0 0 0-.2.2v2.6c0 .11.09.2.2.2h2.6a.2.2 0 0 0 .2-.2v-2.6a.2.2 0 0 0-.2-.2h-2.6ZM21 13.2c0-.11.09-.2.2-.2h2.6c.11 0 .2.09.2.2v2.6a.2.2 0 0 1-.2.2h-2.6a.2.2 0 0 1-.2-.2v-2.6ZM8.2 18a.2.2 0 0 0-.2.2v2.6c0 .11.09.2.2.2h2.6a.2.2 0 0 0 .2-.2v-2.6a.2.2 0 0 0-.2-.2H8.2ZM14.5 18.2c0-.11.09-.2.2-.2h2.6c.11 0 .2.09.2.2v2.6a.2.2 0 0 1-.2.2h-2.6a.2.2 0 0 1-.2-.2v-2.6ZM8.2 23a.2.2 0 0 0-.2.2v2.6c0 .11.09.2.2.2h2.6a.2.2 0 0 0 .2-.2v-2.6a.2.2 0 0 0-.2-.2H8.2ZM14.5 23.2c0-.11.09-.2.2-.2h2.6c.11 0 .2.09.2.2v2.6a.2.2 0 0 1-.2.2h-2.6a.2.2 0 0 1-.2-.2v-2.6ZM21.2 23a.2.2 0 0 0-.2.2v2.6c0 .11.09.2.2.2h2.6a.2.2 0 0 0 .2-.2v-2.6a.2.2 0 0 0-.2-.2h-2.6ZM30.01 26.24V23l-4.51 2.5-2.49 4.5h3.24c2.08 0 3.76-1.69 3.76-3.76Z"/><path fill="#E1D8EC" d="M23.01 26.76V30l7-7h-3.24c-2.07 0-3.76 1.69-3.76 3.76Z"/><path fill="#0084CE" d="M30 8.785V11H2V8.785C2 6.691 3.69 4.99 5.759 5H26.24C28.311 5 30 6.691 30 8.785ZM21.2 18a.2.2 0 0 0-.2.2v2.6c0 .11.09.2.2.2h2.6a.2.2 0 0 0 .2-.2v-2.6a.2.2 0 0 0-.2-.2h-2.6Z"/><path fill="#CDC4D6" d="M8 6.696C8 7.418 8.558 8 9.25 8s1.25-.582 1.25-1.304V3.304C10.5 2.582 9.942 2 9.25 2S8 2.582 8 3.304v3.392ZM21.5 6.696c0 .722.558 1.304 1.25 1.304S24 7.418 24 6.696V3.304C24 2.582 23.442 2 22.75 2s-1.25.582-1.25 1.304v3.392Z"/></svg>
